svg/u1f304.svg

<svg viewBox="0 0 128 128" xmlns="http://www.w3.org/2000/svg">
  <radialGradient id="SVGID_1_" cx="64.9257" cy="83.2919" gradientUnits="userSpaceOnUse" r="90.9904">
    <stop offset="0.2404" stop-color="#FDA72C"/>
    <stop offset="0.3556" stop-color="#FCA330"/>
    <stop offset="0.4769" stop-color="#F9963B"/>
    <stop offset="0.6008" stop-color="#F5814E"/>
    <stop offset="0.6014" stop-color="#F5814E"/>
    <stop offset="0.6756" stop-color="#E07C5E"/>
    <stop offset="0.8286" stop-color="#A96F86"/>
    <stop offset="0.9643" stop-color="#7362AD"/>
  </radialGradient>
  <path d="M124.15,11.44c0-4.15-3.37-7.52-7.52-7.52H11.32c-4.15,0-7.52,3.37-7.52,7.52v105.3 c0,4.15,3.37,7.52,7.52,7.52h105.3c4.15,0,7.52-3.37,7.52-7.52V11.44z" fill="url(#SVGID_1_)"/>
  <path d="M66.3,60.78c14.71,0.12,23.79,11.28,24.16,25.14c0.37,13.86-10.18,24.4-25.38,24.4 c-13,0-23.92-11.02-23.54-27.22C41.77,72.55,50.69,60.65,66.3,60.78z" fill="#FFF7B3"/>
  <path d="M49.94,72.28c-2.26,3.31-4.55,7.58-1.44,9.49c2.68,1.65,4.88-2.41,6.74-4.95 c1.86-2.55,5.71-6.12,3.1-8.39C56.56,66.88,52.9,67.94,49.94,72.28z" fill="#FFFFFC"/>
  <radialGradient id="SVGID_2_" cx="42.1626" cy="79.1872" gradientUnits="userSpaceOnUse" r="51.9286">
    <stop offset="0.2728" stop-color="#FFC618"/>
    <stop offset="0.3771" stop-color="#FEBE1D"/>
    <stop offset="0.5371" stop-color="#FCA929"/>
    <stop offset="0.6954" stop-color="#F98D39"/>
    <stop offset="0.7908" stop-color="#F98D39" stop-opacity="0"/>
  </radialGradient>
  <path d="M3.8,64.78c-0.02,9.74,0,17.25,0,17.25l35.89-3.83c0,0,0-0.02,0.01-0.07L3.8,64.78z" fill="url(#SVGID_2_)"/>
  <radialGradient id="SVGID_3_" cx="42.4344" cy="73.7503" gradientUnits="userSpaceOnUse" r="49.5868">
    <stop offset="0.2728" stop-color="#FFC618"/>
    <stop offset="0.3771" stop-color="#FEBE1D"/>
    <stop offset="0.5371" stop-color="#FCA929"/>
    <stop offset="0.6954" stop-color="#F98D39"/>
    <stop offset="0.9404" stop-color="#F98D39" stop-opacity="0"/>
  </radialGradient>
  <path d="M3.8,41.71c0,4.36,0.01,9.05,0,13.63l36.71,20.22c0.43-1.11,1.05-2.49,1.93-3.98L3.8,41.71z" fill="url(#SVGID_3_)"/>
  <radialGradient id="SVGID_4_" cx="48.1431" cy="67.226" gradientUnits="userSpaceOnUse" r="59.2751">
    <stop offset="0.2728" stop-color="#FFC618"/>
    <stop offset="0.3771" stop-color="#FEBE1D"/>
    <stop offset="0.5371" stop-color="#FCA929"/>
    <stop offset="0.6954" stop-color="#F98D39"/>
    <stop offset="0.9404" stop-color="#F98D39" stop-opacity="0"/>
  </radialGradient>
  <path d="M4.53,10.57c-0.94,1.99-0.73,7.25-0.74,11.98c0,0.95-0.01,2.79,0,4.85l39.85,42.34 c0.61-0.86,1.29-1.73,2.09-2.59c0.55-0.59,1.15-1.19,1.8-1.78L4.53,10.57z" fill="url(#SVGID_4_)"/>
  <radialGradient id="SVGID_5_" cx="52.7645" cy="63.6921" gradientUnits="userSpaceOnUse" r="61.0312">
    <stop offset="0.2728" stop-color="#FFC618"/>
    <stop offset="0.3771" stop-color="#FEBE1D"/>
    <stop offset="0.5371" stop-color="#FCA929"/>
    <stop offset="0.6954" stop-color="#F98D39"/>
    <stop offset="0.9404" stop-color="#F98D39" stop-opacity="0"/>
  </radialGradient>
  <path d="M28.26,3.92c-4.82-0.01-10.04,0.01-14.3,0L49.59,63.7c1.32-0.97,2.83-1.87,4.52-2.64 L28.26,3.92z" fill="url(#SVGID_5_)"/>
  <radialGradient id="SVGID_6_" cx="58.745" cy="60.7018" gradientUnits="userSpaceOnUse" r="60.0683">
    <stop offset="0.2728" stop-color="#FFC618"/>
    <stop offset="0.3771" stop-color="#FEBE1D"/>
    <stop offset="0.5371" stop-color="#FCA929"/>
    <stop offset="0.6954" stop-color="#F98D39"/>
    <stop offset="0.9404" stop-color="#F98D39" stop-opacity="0"/>
  </radialGradient>
  <path d="M50.67,3.91c-4.35,0.01-8.29-0.01-11.48,0l16.95,56.33c1.58-0.56,3.3-1.01,5.17-1.29 L50.67,3.91z" fill="url(#SVGID_6_)"/>
  <radialGradient id="SVGID_7_" cx="65.813" cy="59.6144" gradientUnits="userSpaceOnUse" r="59.2776">
    <stop offset="0.2728" stop-color="#FFC618"/>
    <stop offset="0.3771" stop-color="#FEBE1D"/>
    <stop offset="0.5371" stop-color="#FCA929"/>
    <stop offset="0.6954" stop-color="#F98D39"/>
    <stop offset="0.9404" stop-color="#F98D39" stop-opacity="0"/>
  </radialGradient>
  <path d="M72.31,3.91c-3.67,0-7.39,0-11,0L63.4,58.7c0.86-0.07,1.75-0.11,2.68-0.1 c0.99,0,1.92,0.06,2.82,0.14L72.31,3.91z" fill="url(#SVGID_7_)"/>
  <radialGradient id="SVGID_8_" cx="72.9917" cy="59.7939" gradientUnits="userSpaceOnUse" r="58.1035">
    <stop offset="0.2728" stop-color="#FFC618"/>
    <stop offset="0.3771" stop-color="#FEBE1D"/>
    <stop offset="0.5371" stop-color="#FCA929"/>
    <stop offset="0.6954" stop-color="#F98D39"/>
    <stop offset="0.9404" stop-color="#F98D39" stop-opacity="0"/>
  </radialGradient>
  <path d="M93.57,3.91c-3.3,0-6.99,0.01-10.9,0.01L70.79,58.98c1.95,0.31,3.7,0.81,5.29,1.44L93.57,3.91 z" fill="url(#SVGID_8_)"/>
  <radialGradient id="SVGID_9_" cx="78.5897" cy="63.1484" gradientUnits="userSpaceOnUse" r="61.8975">
    <stop offset="0.2728" stop-color="#FFC618"/>
    <stop offset="0.3771" stop-color="#FEBE1D"/>
    <stop offset="0.5371" stop-color="#FCA929"/>
    <stop offset="0.6954" stop-color="#F98D39"/>
    <stop offset="0.9404" stop-color="#F98D39" stop-opacity="0"/>
  </radialGradient>
  <path d="M116.34,3.91c-3.18-0.04-10.92-0.01-12.14,0L78.02,61.3c1.72,0.87,3.2,1.9,4.52,3L116.34,3.91 z" fill="url(#SVGID_9_)"/>
  <radialGradient id="SVGID_10_" cx="84.5702" cy="67.7697" gradientUnits="userSpaceOnUse" r="57.7417">
    <stop offset="0.2728" stop-color="#FFC618"/>
    <stop offset="0.3631" stop-color="#FEBE1D"/>
    <stop offset="0.5018" stop-color="#FCA929"/>
    <stop offset="0.6389" stop-color="#F98D39"/>
    <stop offset="0.9404" stop-color="#F98D39" stop-opacity="0"/>
  </radialGradient>
  <path d="M124.16,32.64c-0.02-9.06,0-16.87,0-18.01L84.28,65.87c0.33,0.33,0.66,0.66,0.97,0.99 c0.97,1.04,1.8,2.1,2.51,3.15L124.16,32.64z" fill="url(#SVGID_10_)"/>
  <g>
    <radialGradient id="SVGID_11_" cx="90.0071" cy="74.5658" gradientUnits="userSpaceOnUse" r="39.3132">
      <stop offset="0.2728" stop-color="#FFC618"/>
      <stop offset="0.3835" stop-color="#FEBE1D"/>
      <stop offset="0.5534" stop-color="#FCA929"/>
      <stop offset="0.7213" stop-color="#F98D39"/>
      <stop offset="0.9404" stop-color="#F98D39" stop-opacity="0"/>
    </radialGradient>
    <path d="M124.14,57.5c0.04-4.19,0.01-8.72,0-12.84L89.16,72.34c1.14,2.13,1.8,4.02,2.15,5.24 L124.14,57.5z" fill="url(#SVGID_11_)"/>
    <radialGradient id="SVGID_12_" cx="93.2692" cy="79.1872" gradientUnits="userSpaceOnUse" r="39.252">
      <stop offset="0.4831" stop-color="#FFC618"/>
      <stop offset="0.5562" stop-color="#FEBE1D"/>
      <stop offset="0.6685" stop-color="#FCA929"/>
      <stop offset="0.7795" stop-color="#F98D39"/>
      <stop offset="0.9404" stop-color="#F98D39" stop-opacity="0"/>
    </radialGradient>
    <path d="M94.89,79.67l29.25,6.06c0,0,0.02-7.7,0-18.15L94.89,79.67z" fill="url(#SVGID_12_)"/>
  </g>
  <radialGradient id="SVGID_13_" cx="67.0486" cy="66.6722" gradientTransform="matrix(-0.0102 0.9999 -1.1205 -0.0114 142.4337 0.3855)" gradientUnits="userSpaceOnUse" r="64.015">
    <stop offset="0.4921" stop-color="#CD6159"/>
    <stop offset="0.532" stop-color="#BB595A"/>
    <stop offset="0.6779" stop-color="#7A3D5C"/>
    <stop offset="1" stop-color="#4D242C"/>
  </radialGradient>
  <path d="M3.8,80.55v36.19c0,4.15,3.37,7.52,7.52,7.52h105.3c4.15,0,7.52-3.37,7.52-7.52V79.02 c0,0-3.95-2.87-5.3-4.8c-1.35-1.93-5.8-5.8-10.64-5.61c-4.83,0.19-9.67,2.71-11.99,4.45c-2.32,1.74-4.25,3.67-7.16,5.22 c-2.9,1.55-10.83,8.51-14.89,12.76c-4.06,4.25-8.32,8.51-8.32,8.51s-8.51-11.8-13.92-17.02c-5.42-5.22-8.32-7.35-11.02-7.54 c-2.71-0.19-3.35,0.78-3.35,0.78s-5.67-9.95-9.45-12.09c-3.78-2.14-8.94-1.01-9.95-0.63c-1.01,0.38-6.51,5.03-8.44,7.56 C6.45,74.89,3.8,80.55,3.8,80.55z" fill="url(#SVGID_13_)"/>
  <path d="M92.79,104.09c0,0-3.56,1.72-5.63,3.44s-5.17,6.08-7.12,9.07c-1.95,2.99-3.1,6.43-3.1,6.43l-0.5,1.22 h24.63c0,0,2.16-11.21,2.39-16.61s1.38-17.45,1.61-19.63c0.23-2.18,1.38-5.86-0.23-5.86s-2.53,3.79-3.9,5.17 c-1.38,1.38-4.13,2.53-5.05,4.25C94.97,93.3,92.79,104.09,92.79,104.09z" fill="#3E2230"/>
  <radialGradient id="SVGID_14_" cx="66.0908" cy="85.5095" gradientUnits="userSpaceOnUse" r="39.0182">
    <stop offset="0.4242" stop-color="#823437"/>
    <stop offset="0.4837" stop-color="#713035"/>
    <stop offset="0.5891" stop-color="#5B2A33"/>
    <stop offset="0.7031" stop-color="#4B2531"/>
    <stop offset="0.8307" stop-color="#412330"/>
    <stop offset="1" stop-color="#3E2230"/>
  </radialGradient>
  <path d="M29.51,124.26c0,0-0.78-6.62-0.89-8.34c-0.11-1.72-0.34-5.28-0.92-9.07 c-0.57-3.79-1.61-9.18-1.15-11.02c0.46-1.84,2.53-2.87,3.79-2.76c1.26,0.11,5.17,3.1,6.54,6.08c1.38,2.99,3.79,11.6,5.63,13.2 c1.84,1.61,5.74,3.56,7.23,4.25c1.49,0.69,3.44,0.8,4.36,1.95c0.92,1.15,1.03,2.18,1.84,2.99s2.24,2.72,2.24,2.72L29.51,124.26z" fill="url(#SVGID_14_)"/>
  <radialGradient id="SVGID_15_" cx="62.6512" cy="73.8688" fx="62.5989" fy="73.8609" gradientUnits="userSpaceOnUse" r="41.8659">
    <stop offset="0.5803" stop-color="#823437"/>
    <stop offset="0.6603" stop-color="#7D3336"/>
    <stop offset="0.7572" stop-color="#6E2F35"/>
    <stop offset="0.8626" stop-color="#562832"/>
    <stop offset="0.9428" stop-color="#3E2230"/>
  </radialGradient>
  <path d="M40.67,94.1c-2.28-2.85-4.36-6.77-6.54-9.41c-2.18-2.64-2.64-4.13-2.41-5.74 c0.23-1.61,2.3-0.34,3.44,0.34c1.15,0.69,4.92,2.88,7.91,8.05s3.8,8.02,4.38,8.6s2.07,1.61,3.56,4.02 c1.49,2.41,6.54,11.94,6.08,12.63c-0.46,0.69-7.46-2.3-10.45-4.71c-2.99-2.41-4.13-5.4-4.59-7.46 C41.59,98.35,42.05,95.83,40.67,94.1z" fill="url(#SVGID_15_)"/>
  <radialGradient id="SVGID_16_" cx="68.7661" cy="82.0397" gradientTransform="matrix(0.5397 0.8418 -1.275 0.8175 136.2548 -42.9167)" gradientUnits="userSpaceOnUse" r="41.4837">
    <stop offset="0.0982" stop-color="#823437"/>
    <stop offset="0.263" stop-color="#7D3337"/>
    <stop offset="0.4532" stop-color="#6F2F35"/>
    <stop offset="0.6551" stop-color="#582933"/>
    <stop offset="0.8305" stop-color="#3E2230"/>
  </radialGradient>
  <path d="M59.15,105.93c-0.73,1.24,0.69,3.1,1.95,4.71c1.26,1.61,3.1,5.51,3.1,5.51 s-0.92,4.25,0.69,4.94c1.61,0.69,4.82-2.87,6.77-4.94s4.59-5.05,5.63-7.81c1.03-2.76,2.76-6.77,4.71-9.07s4.25-3.44,5.51-5.51 c1.26-2.07,2.3-5.97,2.3-5.97s3.9-1.72,3.67-4.82c-0.23-3.1-6.2,4.25-8.15,6.66c-1.95,2.41-2.87,3.21-4.59,4.36 c-1.72,1.15-2.76,1.61-2.76,1.61s-3.56,2.53-4.02,3.33c-0.46,0.8-4.59,11.6-4.59,11.6S60.65,103.4,59.15,105.93z" fill="url(#SVGID_16_)"/>
  <path d="M10.4,124.21c-3.72-0.45-6.6-3.62-6.6-7.47v-23.3c0,0,2.08-1.45,4.37-4.86s4.92-7.94,5.86-8.93 c1.17-1.22,3.73-1.3,4.18-0.77c0.67,0.77,0.15,2.58-0.15,3.66c-0.24,0.84-1.17,4.8-1.6,6.97c-0.43,2.17-0.54,8.75-1.34,13.52 c-0.81,4.77-1.76,12.22-2.63,14.76C11.62,120.33,10.65,123.81,10.4,124.21z" fill="#3E2230"/>
</svg>

<svg viewBox="0 0 128 128" xmlns="http://www.w3.org/2000/svg">
  <defs>
    <radialGradient id="SVGID_1_" cx="64.9257" cy="83.2919" gradientUnits="userSpaceOnUse" r="90.9904">
      <stop offset="0.2404" stop-color="#FDA72C"/>
      <stop offset="0.3556" stop-color="#FCA330"/>
      <stop offset="0.4769" stop-color="#F9963B"/>
      <stop offset="0.6008" stop-color="#F5814E"/>
      <stop offset="0.6014" stop-color="#F5814E"/>
      <stop offset="0.6756" stop-color="#E07C5E"/>
      <stop offset="0.8286" stop-color="#A96F86"/>
      <stop offset="0.9643" stop-color="#7362AD"/>
    </radialGradient>
    <radialGradient id="SVGID_2_" cx="42.1626" cy="79.1872" gradientUnits="userSpaceOnUse" r="51.9286">
      <stop offset="0.2728" stop-color="#FFC618"/>
      <stop offset="0.3771" stop-color="#FEBE1D"/>
      <stop offset="0.5371" stop-color="#FCA929"/>
      <stop offset="0.6954" stop-color="#F98D39"/>
      <stop offset="0.7908" stop-color="#F98D39" stop-opacity="0"/>
    </radialGradient>
    <radialGradient id="SVGID_3_" cx="42.4344" cy="73.7503" gradientUnits="userSpaceOnUse" r="49.5868">
      <stop offset="0.2728" stop-color="#FFC618"/>
      <stop offset="0.3771" stop-color="#FEBE1D"/>
      <stop offset="0.5371" stop-color="#FCA929"/>
      <stop offset="0.6954" stop-color="#F98D39"/>
      <stop offset="0.9404" stop-color="#F98D39" stop-opacity="0"/>
    </radialGradient>
    <radialGradient id="SVGID_4_" cx="48.1431" cy="67.226" gradientUnits="userSpaceOnUse" r="59.2751">
      <stop offset="0.2728" stop-color="#FFC618"/>
      <stop offset="0.3771" stop-color="#FEBE1D"/>
      <stop offset="0.5371" stop-color="#FCA929"/>
      <stop offset="0.6954" stop-color="#F98D39"/>
      <stop offset="0.9404" stop-color="#F98D39" stop-opacity="0"/>
    </radialGradient>
    <radialGradient id="SVGID_5_" cx="52.7645" cy="63.6921" gradientUnits="userSpaceOnUse" r="61.0312">
      <stop offset="0.2728" stop-color="#FFC618"/>
      <stop offset="0.3771" stop-color="#FEBE1D"/>
      <stop offset="0.5371" stop-color="#FCA929"/>
      <stop offset="0.6954" stop-color="#F98D39"/>
      <stop offset="0.9404" stop-color="#F98D39" stop-opacity="0"/>
    </radialGradient>
    <radialGradient id="SVGID_6_" cx="58.745" cy="60.7018" gradientUnits="userSpaceOnUse" r="60.0683">
      <stop offset="0.2728" stop-color="#FFC618"/>
      <stop offset="0.3771" stop-color="#FEBE1D"/>
      <stop offset="0.5371" stop-color="#FCA929"/>
      <stop offset="0.6954" stop-color="#F98D39"/>
      <stop offset="0.9404" stop-color="#F98D39" stop-opacity="0"/>
    </radialGradient>
    <radialGradient id="SVGID_7_" cx="65.813" cy="59.6144" gradientUnits="userSpaceOnUse" r="59.2776">
      <stop offset="0.2728" stop-color="#FFC618"/>
      <stop offset="0.3771" stop-color="#FEBE1D"/>
      <stop offset="0.5371" stop-color="#FCA929"/>
      <stop offset="0.6954" stop-color="#F98D39"/>
      <stop offset="0.9404" stop-color="#F98D39" stop-opacity="0"/>
    </radialGradient>
    <radialGradient id="SVGID_8_" cx="72.9917" cy="59.7939" gradientUnits="userSpaceOnUse" r="58.1035">
      <stop offset="0.2728" stop-color="#FFC618"/>
      <stop offset="0.3771" stop-color="#FEBE1D"/>
      <stop offset="0.5371" stop-color="#FCA929"/>
      <stop offset="0.6954" stop-color="#F98D39"/>
      <stop offset="0.9404" stop-color="#F98D39" stop-opacity="0"/>
    </radialGradient>
    <radialGradient id="SVGID_9_" cx="78.5897" cy="63.1484" gradientUnits="userSpaceOnUse" r="61.8975">
      <stop offset="0.2728" stop-color="#FFC618"/>
      <stop offset="0.3771" stop-color="#FEBE1D"/>
      <stop offset="0.5371" stop-color="#FCA929"/>
      <stop offset="0.6954" stop-color="#F98D39"/>
      <stop offset="0.9404" stop-color="#F98D39" stop-opacity="0"/>
    </radialGradient>
    <radialGradient id="SVGID_10_" cx="84.5702" cy="67.7697" gradientUnits="userSpaceOnUse" r="57.7417">
      <stop offset="0.2728" stop-color="#FFC618"/>
      <stop offset="0.3631" stop-color="#FEBE1D"/>
      <stop offset="0.5018" stop-color="#FCA929"/>
      <stop offset="0.6389" stop-color="#F98D39"/>
      <stop offset="0.9404" stop-color="#F98D39" stop-opacity="0"/>
    </radialGradient>
    <radialGradient id="SVGID_13_" cx="65.984979" cy="-60.434316" gradientTransform="matrix(-0.0102 0.9999 -1.1205 -0.0114 0 0)" gradientUnits="userSpaceOnUse" r="64.015">
      <stop offset="0.4921" stop-color="#CD6159"/>
      <stop offset="0.532" stop-color="#BB595A"/>
      <stop offset="0.6779" stop-color="#7A3D5C"/>
      <stop offset="1" stop-color="#4D242C"/>
    </radialGradient>
    <radialGradient id="SVGID_14_" cx="66.0908" cy="85.5095" gradientUnits="userSpaceOnUse" r="39.0182">
      <stop offset="0.4242" stop-color="#823437"/>
      <stop offset="0.4837" stop-color="#713035"/>
      <stop offset="0.5891" stop-color="#5B2A33"/>
      <stop offset="0.7031" stop-color="#4B2531"/>
      <stop offset="0.8307" stop-color="#412330"/>
      <stop offset="1" stop-color="#3E2230"/>
    </radialGradient>
    <radialGradient id="SVGID_15_" cx="62.6512" cy="73.8688" fx="62.5989" fy="73.8609" gradientUnits="userSpaceOnUse" r="41.8659">
      <stop offset="0.5803" stop-color="#823437"/>
      <stop offset="0.6603" stop-color="#7D3336"/>
      <stop offset="0.7572" stop-color="#6E2F35"/>
      <stop offset="0.8626" stop-color="#562832"/>
      <stop offset="0.9428" stop-color="#3E2230"/>
    </radialGradient>
    <radialGradient id="SVGID_16_" cx="106.18407" cy="-8.988003" gradientTransform="matrix(0.5397 0.8418 -1.275 0.8175 0 0)" gradientUnits="userSpaceOnUse" r="41.4837">
      <stop offset="0.0982" stop-color="#823437"/>
      <stop offset="0.263" stop-color="#7D3337"/>
      <stop offset="0.4532" stop-color="#6F2F35"/>
      <stop offset="0.6551" stop-color="#582933"/>
      <stop offset="0.8305" stop-color="#3E2230"/>
    </radialGradient>
    <radialGradient id="SVGID_11_" cx="90.0071" cy="74.5658" gradientUnits="userSpaceOnUse" r="39.3132">
      <stop offset="0.2728" stop-color="#FFC618"/>
      <stop offset="0.3835" stop-color="#FEBE1D"/>
      <stop offset="0.5534" stop-color="#FCA929"/>
      <stop offset="0.7213" stop-color="#F98D39"/>
      <stop offset="0.9404" stop-color="#F98D39" stop-opacity="0"/>
    </radialGradient>
    <radialGradient id="SVGID_12_" cx="93.2692" cy="79.1872" gradientUnits="userSpaceOnUse" r="39.252">
      <stop offset="0.4831" stop-color="#FFC618"/>
      <stop offset="0.5562" stop-color="#FEBE1D"/>
      <stop offset="0.6685" stop-color="#FCA929"/>
      <stop offset="0.7795" stop-color="#F98D39"/>
      <stop offset="0.9404" stop-color="#F98D39" stop-opacity="0"/>
    </radialGradient>
  </defs>
  <path d="M124.15,11.44 C124.15,7.29 120.78,3.92 116.63,3.92 L11.32,3.92 C7.17,3.92 3.8,7.29 3.8,11.44 L3.8,116.74 C3.8,120.89 7.17,124.26 11.32,124.26 L116.62,124.26 C120.77,124.26 124.14,120.89 124.14,116.74 L124.14,11.44 Z" fill="url(#SVGID_1_)"/>
  <path d="M66.3,60.78 C81.01,60.9 90.09,72.06 90.46,85.92 C90.83,99.78 80.28,110.32 65.08,110.32 C52.08,110.32 41.16,99.3 41.54,83.1 C41.77,72.55 50.69,60.65 66.3,60.78 Z" fill="#FFF7B3"/>
  <path d="M49.94,72.28 C47.68,75.59 45.39,79.86 48.5,81.77 C51.18,83.42 53.38,79.36 55.24,76.82 C57.1,74.27 60.95,70.7 58.34,68.43 C56.56,66.88 52.9,67.94 49.94,72.28 Z" fill="#FFFFFC"/>
  <path d="M3.8,64.78 C3.78,74.52 3.8,82.03 3.8,82.03 L39.69,78.2 C39.69,78.2 39.69,78.18 39.7,78.13 L3.8,64.78 Z" fill="url(#SVGID_2_)"/>
  <path d="M3.8,41.71 C3.8,46.07 3.81,50.76 3.8,55.34 L40.51,75.56 C40.94,74.45 41.56,73.07 42.44,71.58 L3.8,41.71 Z" fill="url(#SVGID_3_)"/>
  <path d="M4.53,10.57 C3.59,12.56 3.8,17.82 3.79,22.55 C3.79,23.5 3.78,25.34 3.79,27.4 L43.64,69.74 C44.25,68.88 44.93,68.01 45.73,67.15 C46.28,66.56 46.88,65.96 47.53,65.37 L4.53,10.57 Z" fill="url(#SVGID_4_)"/>
  <path d="M28.26,3.92 C23.44,3.91 18.22,3.93 13.96,3.92 L49.59,63.7 C50.91,62.73 52.42,61.83 54.11,61.06 L28.26,3.92 Z" fill="url(#SVGID_5_)"/>
  <path d="M50.67,3.91 C46.32,3.92 42.38,3.9 39.19,3.91 L56.14,60.24 C57.72,59.68 59.44,59.23 61.31,58.95 L50.67,3.91 Z" fill="url(#SVGID_6_)"/>
  <path d="M72.31,3.91 C68.64,3.91 64.92,3.91 61.31,3.91 L63.4,58.7 C64.26,58.63 65.15,58.59 66.08,58.6 C67.07,58.6 68,58.66 68.9,58.74 L72.31,3.91 Z" fill="url(#SVGID_7_)"/>
  <path d="M93.57,3.91 C90.27,3.91 86.58,3.92 82.67,3.92 L70.79,58.98 C72.74,59.29 74.49,59.79 76.08,60.42 L93.57,3.91 Z" fill="url(#SVGID_8_)"/>
  <path d="M116.34,3.91 C113.16,3.87 105.42,3.9 104.2,3.91 L78.02,61.3 C79.74,62.17 81.22,63.2 82.54,64.3 L116.34,3.91 Z" fill="url(#SVGID_9_)"/>
  <path d="M124.16,32.64 C124.14,23.58 124.16,15.77 124.16,14.63 L84.28,65.87 C84.61,66.2 84.94,66.53 85.25,66.86 C86.22,67.9 87.05,68.96 87.76,70.01 L124.16,32.64 Z" fill="url(#SVGID_10_)"/>
  <path d="M124.14,57.5 C124.18,53.31 124.15,48.78 124.14,44.66 L89.16,72.34 C90.3,74.47 90.96,76.36 91.31,77.58 L124.14,57.5 Z" fill="url(#SVGID_11_)"/>
  <path d="M94.89,79.67 L124.14,85.73 C124.14,85.73 124.16,78.03 124.14,67.58 L94.89,79.67 Z" fill="url(#SVGID_12_)"/>
  <path d="M3.8,80.55 L3.8,116.74 C3.8,120.89 7.17,124.26 11.32,124.26 L116.62,124.26 C120.77,124.26 124.14,120.89 124.14,116.74 L124.14,79.02 C124.14,79.02 120.19,76.15 118.84,74.22 C117.49,72.29 113.04,68.42 108.2,68.61 C103.37,68.8 98.53,71.32 96.21,73.06 C93.89,74.8 91.96,76.73 89.05,78.28 C86.15,79.83 78.22,86.79 74.16,91.04 C70.1,95.29 65.84,99.55 65.84,99.55 C65.84,99.55 57.33,87.75 51.92,82.53 C46.5,77.31 43.6,75.18 40.9,74.99 C38.19,74.8 37.55,75.77 37.55,75.77 C37.55,75.77 31.88,65.82 28.1,63.68 C24.32,61.54 19.16,62.67 18.15,63.05 C17.14,63.43 11.64,68.08 9.71,70.61 C6.45,74.89 3.8,80.55 3.8,80.55 Z" fill="url(#SVGID_13_)"/>
  <path d="M92.79,104.09 C92.79,104.09 89.23,105.81 87.16,107.53 C85.09,109.25 81.99,113.61 80.04,116.6 C78.09,119.59 76.94,123.03 76.94,123.03 L76.44,124.25 L101.07,124.25 C101.07,124.25 103.23,113.04 103.46,107.64 C103.69,102.24 104.84,90.19 105.07,88.01 C105.3,85.83 106.45,82.15 104.84,82.15 C103.23,82.15 102.31,85.94 100.94,87.32 C99.56,88.7 96.81,89.85 95.89,91.57 C94.97,93.3 92.79,104.09 92.79,104.09 Z" fill="#3E2230"/>
  <path d="M29.51,124.26 C29.51,124.26 28.73,117.64 28.62,115.92 C28.51,114.2 28.28,110.64 27.7,106.85 C27.13,103.06 26.09,97.67 26.55,95.83 C27.01,93.99 29.08,92.96 30.34,93.07 C31.6,93.18 35.51,96.17 36.88,99.15 C38.26,102.14 40.67,110.75 42.51,112.35 C44.35,113.96 48.25,115.91 49.74,116.6 C51.23,117.29 53.18,117.4 54.1,118.55 C55.02,119.7 55.13,120.73 55.94,121.54 C56.75,122.35 58.18,124.26 58.18,124.26 L29.51,124.26 Z" fill="url(#SVGID_14_)"/>
  <path d="M40.67,94.1 C38.39,91.25 36.31,87.33 34.13,84.69 C31.95,82.05 31.49,80.56 31.72,78.95 C31.95,77.34 34.02,78.61 35.16,79.29 C36.31,79.98 40.08,82.17 43.07,87.34 C46.06,92.51 46.87,95.36 47.45,95.94 C48.03,96.52 49.52,97.55 51.01,99.96 C52.5,102.37 57.55,111.9 57.09,112.59 C56.63,113.28 49.63,110.29 46.64,107.88 C43.65,105.47 42.51,102.48 42.05,100.42 C41.59,98.35 42.05,95.83 40.67,94.1 Z" fill="url(#SVGID_15_)"/>
  <path d="M59.15,105.93 C58.42,107.17 59.84,109.03 61.1,110.64 C62.36,112.25 64.2,116.15 64.2,116.15 C64.2,116.15 63.28,120.4 64.89,121.09 C66.5,121.78 69.71,118.22 71.66,116.15 C73.61,114.08 76.25,111.1 77.29,108.34 C78.32,105.58 80.05,101.57 82,99.27 C83.95,96.97 86.25,95.83 87.51,93.76 C88.77,91.69 89.81,87.79 89.81,87.79 C89.81,87.79 93.71,86.07 93.48,82.97 C93.25,79.87 87.28,87.22 85.33,89.63 C83.38,92.04 82.46,92.84 80.74,93.99 C79.02,95.14 77.98,95.6 77.98,95.6 C77.98,95.6 74.42,98.13 73.96,98.93 C73.5,99.73 69.37,110.53 69.37,110.53 C69.37,110.53 60.65,103.4 59.15,105.93 Z" fill="url(#SVGID_16_)"/>
  <path d="M10.4,124.21 C6.68,123.76 3.8,120.59 3.8,116.74 L3.8,93.44 C3.8,93.44 5.88,91.99 8.17,88.58 C10.46,85.17 13.09,80.64 14.03,79.65 C15.2,78.43 17.76,78.35 18.21,78.88 C18.88,79.65 18.36,81.46 18.06,82.54 C17.82,83.38 16.89,87.34 16.46,89.51 C16.03,91.68 15.92,98.26 15.12,103.03 C14.31,107.8 13.36,115.25 12.49,117.79 C11.62,120.33 10.65,123.81 10.4,124.21 Z" fill="#3E2230"/>
</svg>
